!! "Universal Harmony", (court dance suite) No. 56 from Jonathan Condit,
!! 'Music of the Korean Renaissance; Songs and dances of the fifteenth century',
!! London: Cambridge University Press, 1984, ISBN 0 521 24399 8; pp.133-135
!! pluck	wind	voice
!! str.
**kern	**kern	**kern
*M12/8	*M12/8	*M12/8
=1	=1	=1
4r	4r	4r
12G	{12g	{12g
24A	[24a	[24a
8A	8a]	8a]
8G	[4g	8g}
8G	.	[8g
4G	2.g]	4g]
8G	.	[8g
4G	.	4g]
8G	.	{8g
=2	=2	=2
4E	[4.e	4e}
8E	.	[{8e
8E	8e]	8e]
8G	[4g	[4g
8G	.	.
4G	2.g_	2.g_
8G	.	.
4G	.	.
8G	.	.
=3	=3	=3
8G	8g}]	8g}]
8A	[{4a	[4a
8A	.	.
4A	4a]	4a]
8G	8g	{8g
8E	8e	8e
8D	8d	8d}
8E	[8e	[8e
4E	4.e]	4e]
8E	.	{8e
=4	=4	=4
8C	8c	8c
8D	[4d	8d}
8D	.	[{8d
4D	4d]	4d]
8E	[8e	[8e
4E	2.e_	2.e_
8E	.	.
4E	.	.
8E	.	.
=5	=5	=5
8E	8e}]	8e}]
8E	{8e	{8e
8G	[8g	[8g
4G	4.g]	4g}]
8G	.	{8g
4E	[4.e	4e}
8E	.	[8e
4E	4e]	4e]
8D	[8d	[{8d
=6	=6	=6
8D	8d]	8d]
8C	[4c	8c}
8C	.	[{8c
8C	8c]	8c]
8AA	[4A	[4A
8AA	.	.
4AA	2.A_	2.A_
8AA	.	.
4AA	.	.
8AA	.	.
=7	=7	=7
8AA	8A}]	8A}]
8C	{8c	{8c
8AA	8A	8A
4C	[4.c	4c}
8C	.	[{8c
8C	8c]	8c]
8D	4d	8d}
8D	.	{8d
4G	4.g	4g}
8G	.	{8g
=8	=8	=8
4E	[4.e	4e}
8E	.	[{8e
4E	4e]	4e]
8D	[8d	[8d
4D	2.d_	2.d_
8D	.	.
4D	.	.
8D	.	.
=9	=9	=9
8D	8d}]	8d}]
8E	{8e	{8e
8D	8d	8d
4C	[4.c	4c}
8C	.	{8c
8C	8c]	8c
8D	8d	8d}
8E	8e	{8e
4G	[4.g	4g}
8G	.	[{8g
=10	=10	=10
8G	8g]	8g]
8A	[4a	8a}
8A	.	[{8a
8A	8a]	8a]
8G	[4g	[4g
8G	.	.
4G	2.g_	2.g_
8G	.	.
4G	.	.
8G	.	.
=11	=11	=11
8G	8g}]	8g}]
8A	{8a	{8a
8c	[8cc	[8cc
4c	4cc]	4cc}]
8A	8a	{8a
4G	4.g	4g}
8G	.	{8g
4A	4.a	4a}
8A	.	{8a
=12	=12	=12
8G	8g	8g
8E	4e	8e}
8E	.	{8e
4D	4d	4d
8E	[8e	[8e
4E	2.e_	2.e_
8E	.	.
4E	.	.
8E	.	.
=13	=13	=13
8E	8e}]	8e}]
8G	{8g	{8g
8E	8e	8e
4A	4.a	4a}
8A	.	{8a
8G	8g	8g
8E	[4e	8e}
8E	.	[{8e
8E	8e]	8e]
8C	8c	8c}
8E	8e	{8e
=14	=14	=14
4D	4.d	4d}
8D	.	{8d
8E	8e	8e
8C	[4c	[4c
8C	.	.
4C	2.c_	2.c_
8C	.	.
4C	.	.
8C	.	.
=15	=15	=15
8C	8c}]	8c}]
8G	[{4g	[{4g
8G	.	.
8G	8g]	8g]
8E	[4e	8e}
8E	.	[{8e
8E	8e]	8e]
8D	4d	8d}
8D	.	{8d
4E	4e	4e}
8G	[8g	[8g
=16	=16	=16
4G	4g]	4g]
8A	[8a	[{8a
4A	4a]	4a]
8G	[8g	[8g
4G	2.g_	2.g_
8G	.	.
4G	.	.
8G	.	.
=17	=17	=17
8G	8g}]	8g}]
8c	{8cc	{8cc
8A	[8a	[8a
4A	4a]	4a]
8G	8g	{8g
4A	4.a	4a}
8A	.	{8a
4G	4.g	4g}
8G	.	{8g
=18	=18	=18
4E	[4.e	4e}
8E	.	[{8e
8E	8e]	8e]
8C	8c	8c
8E	[8e	[8e
4E	2.e_	2.e_
8E	.	.
4E	.	.
8E	.	.
=19	=19	=19
8E	8e}]	8e}]
8A	{8a	{8a
8c	[8cc	[8cc
4c	4cc]	4cc}]
8A	8a	{8a
4G	[4.g	4g}
8G	.	[8g
4G	4g]	4g]
8E	[8e	[{8e
=20	=20	=20
8E	8e]	8e]
8G	8g	8g}
12A	12a	{12a
24G	24g	24g
4E	4e	4e
8D	[8d	[8d
4D	2.d_	2.d_
8D	.	.
4D	.	.
8D	.	.
=21	=21	=21
8D	8d}]	8d}]
8C	{8c	{8c
8E	[8e	[8e
4E	4.e]	4e}]
8E	.	{8e
4D	4.d	4d}
8D	.	{8d
4E	4.e	4e}
8E	.	{8e
=22	=22	=22
4D	4.d	4d}
8D	.	{8d
4C	4c	4c
8AA	[8A	[8A
4AA	2.A_	2.A_
8AA	.	.
4AA	.	.
8AA	.	.
=23	=23	=23
8AA	8A}]	8A}]
8AA	{8A	{8A
8C	[8c	[8c
4C	4.c]	4c}]
8C	.	{8c
8AA	8A	8A
8D	8d	8d}
8E	[8e	[8e
4E	4e]	4e]
8D	8d	{8d
=24	=24	=24
4C	4c	4c}
8AA	[8A	[{8A
4AA	4A]	4A]
8GG	[8G	[8G
4GG	2.G_	2.G_
8GG	.	.
4GG	.	.
8GG	.	.
=25	=25	=25
4GG	4g}]	4g}]
====	====	====
*-	*-	*-
